build/documents/FileSNGSolid.svg

<svg xmlns="http://www.w3.org/2000/svg" fill="none" viewBox="0 0 24 24" focusable="false"><path d="M0 0H24V24H0z"/><path fill="#74767B" fill-rule="evenodd" d="M6.66764 6.35009C6.66764 4.69324 8.01079 3.3501 9.66764 3.3501L17.6499 3.3501C19.3068 3.3501 20.6499 4.69324 20.6499 6.3501L20.6499 16.3655C20.6499 18.0224 19.3068 19.3655 17.6499 19.3655L9.66764 19.3655C8.01079 19.3655 6.66764 18.0224 6.66764 16.3655L6.66764 6.35009ZM10.9972 9.57172C10.858 9.48317 10.5843 9.44346 10.3246 9.53905C9.98766 9.66303 9.61405 9.49042 9.49007 9.15353C9.36609 8.81663 9.53869 8.44302 9.87559 8.31904C10.454 8.10617 11.1618 8.13554 11.6952 8.475C11.9734 8.65208 12.2104 8.92019 12.3255 9.27962C12.44 9.63745 12.4145 10.0248 12.2783 10.4108C12.1568 10.7549 12.0067 11.1744 11.8485 11.6061L12.7077 10.9529C12.9519 10.7673 13.2926 10.7777 13.5251 10.9778L14.2211 11.5768C14.2989 11.4279 14.3895 11.2681 14.4962 11.1136C14.8236 10.6393 15.3319 10.1776 16.1558 10.1135C16.9676 10.0504 17.5265 10.414 17.8607 10.7842C18.0226 10.9635 18.1328 11.1437 18.2028 11.2784C18.2382 11.3465 18.2645 11.4052 18.2829 11.4495C18.2921 11.4717 18.2994 11.4904 18.3049 11.5052L18.3118 11.5242L18.3143 11.5314L18.3153 11.5344L18.3158 11.5357C18.3159 11.536 18.3162 11.5369 17.7229 11.7365L18.3162 11.5369C18.4306 11.8772 18.2476 12.2458 17.9073 12.3602C17.5694 12.4739 17.2036 12.2942 17.0864 11.9584L17.0819 11.9472C17.0762 11.9332 17.0655 11.909 17.0494 11.8781C17.0165 11.8148 16.9657 11.7328 16.8959 11.6554C16.7666 11.5122 16.5786 11.3846 16.2567 11.4096C15.9469 11.4337 15.7525 11.582 15.566 11.8521C15.4663 11.9965 15.3789 12.1631 15.2843 12.3549L15.2388 12.4478C15.1619 12.6054 15.0728 12.788 14.9787 12.9439C14.8797 13.1076 14.7137 13.2194 14.5248 13.2496C14.3359 13.2797 14.1433 13.2251 13.9983 13.1003L13.0757 12.3062L10.7899 14.0436C10.5522 14.2243 10.2219 14.2198 9.98925 14.0327C9.75655 13.8457 9.68122 13.5241 9.80661 13.2532C10.1026 12.6135 10.688 11.0105 11.0523 9.97816C11.115 9.80052 11.098 9.7093 11.0874 9.67598C11.0772 9.64427 11.0552 9.60864 10.9972 9.57172ZM5.36299 9.35214C5.36299 8.99316 5.07197 8.70214 4.71299 8.70214C4.354 8.70214 4.06299 8.99316 4.06299 9.35214L4.06299 18.8131C4.06299 20.5528 5.47329 21.9631 7.21299 21.9631L15.6563 21.9631C16.0153 21.9631 16.3063 21.6721 16.3063 21.3131C16.3063 20.9541 16.0153 20.6631 15.6563 20.6631L7.21299 20.6631C6.19126 20.6631 5.36299 19.8348 5.36299 18.8131L5.36299 9.35214Z"/></svg>

<svg xmlns="http://www.w3.org/2000/svg" fill="none" viewBox="0 0 24 24" focusable="false"><path fill="#74767B" fill-rule="evenodd" d="M6.66 6.35c0-1.66 1.35-3 3-3h7.98c1.66 0 3 1.34 3 3v10.01c0 1.66-1.34 3-3 3H9.66c-1.65 0-3-1.34-3-3zm4.33 3.22c-.14-.09-.41-.13-.67-.04a.647.647 0 0 1-.84-.38.66.66 0 0 1 .39-.84c.58-.21 1.29-.18 1.82.16.28.18.52.45.63.8.11.36.09.75-.05 1.14-.12.34-.27.76-.43 1.19l.86-.65c.25-.19.59-.18.82.02l.7.6c.07-.15.16-.31.27-.46.33-.48.84-.94 1.66-1 .81-.06 1.37.3 1.71.67.16.18.27.36.34.49.03.07.06.13.08.17.01.03.01.05.02.06l.01.02v.01l-.59.2.59-.2c.12.34-.07.71-.41.83-.34.11-.7-.07-.82-.41v-.01c-.01-.01-.02-.04-.04-.07-.03-.06-.08-.14-.15-.22a.75.75 0 0 0-.64-.25c-.31.03-.5.18-.69.45-.1.14-.19.31-.28.5l-.05.09c-.07.16-.16.34-.26.5s-.26.27-.45.3a.67.67 0 0 1-.53-.14l-.92-.8-2.29 1.74a.66.66 0 0 1-.8-.01.66.66 0 0 1-.18-.78c.3-.64.88-2.24 1.25-3.28.06-.17.04-.27.03-.3a.16.16 0 0 0-.09-.1m-5.63-.22c0-.36-.29-.65-.65-.65s-.65.29-.65.65v9.46a3.15 3.15 0 0 0 3.15 3.15h8.44c.36 0 .65-.29.65-.65s-.29-.65-.65-.65H7.21c-1.02 0-1.85-.83-1.85-1.85z"/></svg>
